X: 4066
T: Blessings Of Silver, The
R: reel
M: 4/4
K: Eminor
|:G3A Beed|B2 Ad BdAd|BEED GABe|e^dBe ^dBAF|
GBA=c BAGF|(3efg fe dBA=c|BEED GABe|dBAF E3:|
|:Beef edBA|(3FGA Bc d3A|Beef g2 fe|dBAF GEEc|
Beef edBA|(3FGA Bc d3A|BedB A2 Bc|dBAF GEED:|

